TileServer und Tiles/svg/8/35_15.svg

<?xml version='1.0' encoding='UTF-8' standalone='no'?>
<svg viewBox="0 0 497 279" width="497pt" height="279pt" xmlns="http://www.w3.org/2000/svg" xmlns:xlink="http://www.w3.org/1999/xlink">
 <defs overflow="visible" style="stroke:none;">
  <path id="glyph0-4" d="M 2.921875 -5.453125 C 3.378906 -5.453125 3.769531 -5.351562 4.09375 -5.15625 C 4.425781 -4.957031 4.679688 -4.675781 4.859375 -4.3125 C 5.035156 -3.945312 5.125 -3.523438 5.125 -3.046875 L 5.125 -2.515625 L 1.453125 -2.515625 C 1.472656 -1.898438 1.628906 -1.4375 1.921875 -1.125 C 2.222656 -0.8125 2.640625 -0.65625 3.171875 -0.65625 C 3.515625 -0.65625 3.816406 -0.6875 4.078125 -0.75 C 4.335938 -0.8125 4.609375 -0.898438 4.890625 -1.015625 L 4.890625 -0.25 C 4.617188 -0.125 4.347656 -0.0351562 4.078125 0.015625 C 3.816406 0.0664062 3.5 0.09375 3.125 0.09375 C 2.625 0.09375 2.175781 -0.00390625 1.78125 -0.203125 C 1.394531 -0.410156 1.09375 -0.71875 0.875 -1.125 C 0.65625 -1.539062 0.546875 -2.046875 0.546875 -2.640625 C 0.546875 -3.222656 0.644531 -3.722656 0.84375 -4.140625 C 1.039062 -4.566406 1.316406 -4.890625 1.671875 -5.109375 C 2.023438 -5.335938 2.441406 -5.453125 2.921875 -5.453125 Z M 2.90625 -4.734375 C 2.488281 -4.734375 2.15625 -4.597656 1.90625 -4.328125 C 1.664062 -4.066406 1.523438 -3.691406 1.484375 -3.203125 L 4.203125 -3.203125 C 4.203125 -3.660156 4.097656 -4.03125 3.890625 -4.3125 C 3.679688 -4.59375 3.351562 -4.734375 2.90625 -4.734375 Z M 2.90625 -4.734375 "/>
  <path id="glyph0-3" d="M 6.734375 -5.453125 C 7.335938 -5.453125 7.789062 -5.296875 8.09375 -4.984375 C 8.394531 -4.679688 8.546875 -4.179688 8.546875 -3.484375 L 8.546875 0 L 7.671875 0 L 7.671875 -3.453125 C 7.671875 -4.296875 7.304688 -4.71875 6.578125 -4.71875 C 6.054688 -4.71875 5.679688 -4.566406 5.453125 -4.265625 C 5.234375 -3.960938 5.125 -3.523438 5.125 -2.953125 L 5.125 0 L 4.265625 0 L 4.265625 -3.453125 C 4.265625 -4.296875 3.894531 -4.71875 3.15625 -4.71875 C 2.613281 -4.71875 2.238281 -4.550781 2.03125 -4.21875 C 1.832031 -3.882812 1.734375 -3.40625 1.734375 -2.78125 L 1.734375 0 L 0.84375 0 L 0.84375 -5.359375 L 1.5625 -5.359375 L 1.6875 -4.625 L 1.734375 -4.625 C 1.898438 -4.90625 2.125 -5.113281 2.40625 -5.25 C 2.695312 -5.382812 3 -5.453125 3.3125 -5.453125 C 4.15625 -5.453125 4.703125 -5.15625 4.953125 -4.5625 L 5.015625 -4.5625 C 5.191406 -4.863281 5.429688 -5.085938 5.734375 -5.234375 C 6.046875 -5.378906 6.378906 -5.453125 6.734375 -5.453125 Z M 6.734375 -5.453125 "/>
  <path id="glyph0-2" d="M 5.515625 -2.6875 C 5.515625 -1.800781 5.285156 -1.113281 4.828125 -0.625 C 4.378906 -0.144531 3.773438 0.09375 3.015625 0.09375 C 2.535156 0.09375 2.109375 -0.0078125 1.734375 -0.21875 C 1.367188 -0.4375 1.078125 -0.753906 0.859375 -1.171875 C 0.648438 -1.585938 0.546875 -2.09375 0.546875 -2.6875 C 0.546875 -3.570312 0.769531 -4.253906 1.21875 -4.734375 C 1.664062 -5.210938 2.273438 -5.453125 3.046875 -5.453125 C 3.523438 -5.453125 3.945312 -5.34375 4.3125 -5.125 C 4.6875 -4.914062 4.976562 -4.601562 5.1875 -4.1875 C 5.40625 -3.78125 5.515625 -3.28125 5.515625 -2.6875 Z M 1.453125 -2.6875 C 1.453125 -2.050781 1.578125 -1.546875 1.828125 -1.171875 C 2.078125 -0.804688 2.476562 -0.625 3.03125 -0.625 C 3.570312 -0.625 3.96875 -0.804688 4.21875 -1.171875 C 4.46875 -1.546875 4.59375 -2.050781 4.59375 -2.6875 C 4.59375 -3.320312 4.46875 -3.816406 4.21875 -4.171875 C 3.96875 -4.535156 3.566406 -4.71875 3.015625 -4.71875 C 2.472656 -4.71875 2.078125 -4.535156 1.828125 -4.171875 C 1.578125 -3.816406 1.453125 -3.320312 1.453125 -2.6875 Z M 1.453125 -2.6875 "/>
  <path id="glyph0-1" d="M 6.625 0 L 5.578125 0 L 1.765625 -5.9375 L 1.71875 -5.9375 C 1.726562 -5.695312 1.742188 -5.40625 1.765625 -5.0625 C 1.785156 -4.71875 1.796875 -4.359375 1.796875 -3.984375 L 1.796875 0 L 0.96875 0 L 0.96875 -7.140625 L 2.015625 -7.140625 L 5.8125 -1.234375 L 5.859375 -1.234375 C 5.847656 -1.335938 5.835938 -1.492188 5.828125 -1.703125 C 5.816406 -1.921875 5.804688 -2.15625 5.796875 -2.40625 C 5.796875 -2.664062 5.796875 -2.898438 5.796875 -3.109375 L 5.796875 -7.140625 L 6.625 -7.140625 Z M 6.625 0 "/>
  <path id="glyph0-0" d="M 0.9375 0 L 0.9375 -7.140625 L 5.046875 -7.140625 L 5.046875 0 Z M 1.453125 -0.515625 L 4.546875 -0.515625 L 4.546875 -6.625 L 1.453125 -6.625 Z M 1.453125 -0.515625 "/>
 </defs>
 <image width="497" height="279" id="image20" xlink:href="svg/8/35_15.jpg"/>
 <g>
  <path style="fill:#fdfdfa;fill-opacity:1;fill-rule:nonzero;stroke:#3f3f35;stroke-width:0.5;stroke-linecap:butt;stroke-linejoin:miter;stroke-miterlimit:4;stroke-opacity:1" transform="translate(57.230532,203.08854)" d="m 3.748348,1.998524 c 0,0.96875 -0.78125,1.75 -1.75,1.75 -0.964844,0 -1.75,-0.78125 -1.75,-1.75 0,-0.964844 0.785156,-1.75 1.75,-1.75 0.96875,0 1.75,0.785156 1.75,1.75 z m 0,0"/>
  <path style="fill:none;stroke:#ffffff;stroke-width:3;stroke-linecap:butt;stroke-linejoin:round;stroke-miterlimit:10;stroke-opacity:0.6" transform="rotate(  340 60.9789 205.087) translate(3.842161,2.3644068)" d="m 47.695312,198.72266 h -1.046874 l -3.8125,-5.9375 h -0.04688 c 0.0078,0.24218 0.02344,0.53125 0.04688,0.875 0.01953,0.34375 0.03125,0.70312 0.03125,1.07812 v 3.98438 h -0.828126 v -7.14063 h 1.046876 l 3.796874,5.90625 h 0.04688 c -0.01172,-0.10156 -0.02344,-0.25781 -0.03125,-0.46875 -0.01172,-0.21875 -0.02344,-0.45312 -0.03125,-0.70312 0,-0.25782 0,-0.49219 0,-0.70313 v -4.03125 h 0.828124 z m 0,0"/>
  <path style="fill:none;stroke:#ffffff;stroke-width:3;stroke-linecap:butt;stroke-linejoin:round;stroke-miterlimit:10;stroke-opacity:0.6" transform="rotate(  340 60.9789 205.087) translate(3.842161,2.3644068)" d="m 54.183594,196.03516 c 0,0.88671 -0.230469,1.57421 -0.6875,2.0625 -0.449219,0.48046 -1.054688,0.71875 -1.8125,0.71875 -0.480469,0 -0.90625,-0.10157 -1.28125,-0.3125 -0.367188,-0.21875 -0.65625,-0.53516 -0.875,-0.95313 -0.210938,-0.41406 -0.3125,-0.92187 -0.3125,-1.51562 0,-0.88282 0.222656,-1.56641 0.671875,-2.04688 0.445312,-0.47656 1.054687,-0.71875 1.828125,-0.71875 0.476562,0 0.898437,0.10938 1.265625,0.32813 0.375,0.21093 0.664062,0.52343 0.875,0.9375 0.21875,0.40625 0.328125,0.90625 0.328125,1.5 z m -4.0625,0 c 0,0.63671 0.125,1.14062 0.375,1.51562 0.25,0.36719 0.648437,0.54688 1.203125,0.54688 0.539062,0 0.9375,-0.17969 1.1875,-0.54688 0.25,-0.375 0.375,-0.87891 0.375,-1.51562 0,-0.63282 -0.125,-1.12891 -0.375,-1.48438 -0.25,-0.36328 -0.652344,-0.54687 -1.203125,-0.54687 -0.542969,0 -0.9375,0.18359 -1.1875,0.54687 -0.25,0.35547 -0.375,0.85156 -0.375,1.48438 z m 0,0"/>
  <path style="fill:none;stroke:#ffffff;stroke-width:3;stroke-linecap:butt;stroke-linejoin:round;stroke-miterlimit:10;stroke-opacity:0.6" transform="rotate(  340 60.9789 205.087) translate(3.842161,2.3644068)" d="m 61.453125,193.26953 c 0.601563,0 1.054687,0.15625 1.359375,0.46875 0.300781,0.30469 0.453125,0.80469 0.453125,1.5 v 3.48438 h -0.875 v -3.45313 c 0,-0.84375 -0.367187,-1.26562 -1.09375,-1.26562 -0.523437,0 -0.898437,0.15234 -1.125,0.45312 -0.21875,0.30469 -0.328125,0.74219 -0.328125,1.3125 v 2.95313 h -0.859375 v -3.45313 c 0,-0.84375 -0.371094,-1.26562 -1.109375,-1.26562 -0.542969,0 -0.917969,0.16796 -1.125,0.5 -0.199219,0.33593 -0.296875,0.8125 -0.296875,1.4375 v 2.78125 H 55.5625 v -5.35938 h 0.71875 l 0.125,0.73438 h 0.04687 c 0.164063,-0.28125 0.390625,-0.48829 0.671875,-0.625 0.289062,-0.13282 0.59375,-0.20313 0.90625,-0.20313 0.84375,0 1.390625,0.29688 1.640625,0.89063 h 0.0625 c 0.175781,-0.30079 0.414063,-0.52344 0.71875,-0.67188 0.3125,-0.14453 0.644531,-0.21875 1,-0.21875 z m 0,0"/>
  <path style="fill:none;stroke:#ffffff;stroke-width:3;stroke-linecap:butt;stroke-linejoin:round;stroke-miterlimit:10;stroke-opacity:0.6" transform="rotate(  340 60.9789 205.087) translate(3.842161,2.3644068)" d="m 66.992188,193.26953 c 0.457031,0 0.847656,0.10156 1.171874,0.29688 0.332032,0.19921 0.585938,0.48046 0.765626,0.84375 0.175781,0.36718 0.265624,0.78906 0.265624,1.26562 v 0.53125 h -3.671874 c 0.01953,0.61719 0.175781,1.07813 0.46875,1.39063 0.300781,0.3125 0.71875,0.46875 1.25,0.46875 0.34375,0 0.644531,-0.0312 0.90625,-0.0937 0.257812,-0.0625 0.53125,-0.14844 0.8125,-0.26563 v 0.76563 c -0.273438,0.125 -0.542969,0.21484 -0.8125,0.26562 -0.261719,0.0508 -0.578126,0.0781 -0.953126,0.0781 -0.5,0 -0.949218,-0.0977 -1.34375,-0.29688 -0.386718,-0.20703 -0.6875,-0.51562 -0.90625,-0.92187 -0.21875,-0.41407 -0.328124,-0.92188 -0.328124,-1.51563 0,-0.58203 0.09766,-1.08203 0.296874,-1.5 0.195313,-0.42578 0.472657,-0.75 0.828126,-0.96875 0.351562,-0.22656 0.769531,-0.34375 1.25,-0.34375 z m -0.01563,0.71875 c -0.417968,0 -0.75,0.13672 -1,0.40625 -0.242187,0.26172 -0.382812,0.63672 -0.421874,1.125 h 2.71875 c 0,-0.45703 -0.105469,-0.82812 -0.3125,-1.10937 -0.210938,-0.28125 -0.539063,-0.42188 -0.984376,-0.42188 z m 0,0"/>
  <g style="fill:#212121;fill-opacity:1" transform=" rotate(  340 60.9789 205.087) ">
   <use xlink:href="#glyph0-1" y="201.089" x="44.9105"/>
   <use xlink:href="#glyph0-2" y="201.089" x="52.5105"/>
   <use xlink:href="#glyph0-3" y="201.089" x="58.5605"/>
   <use xlink:href="#glyph0-4" y="201.089" x="67.9105"/>
  </g>
 </g>
</svg>

<svg xmlns="http://www.w3.org/2000/svg" xmlns:xlink="http://www.w3.org/1999/xlink" viewBox="0 0 497 279"> <defs overflow="visible" style="stroke:none">  <path id="d" d="M3-5.5c.3 0 .7.1 1 .3a2 2 0 0 1 1 .9v1.8H1.5c0 .5.1 1 .4 1.4.3.3.7.4 1.3.4H4l.9-.3v.8L4 0a5 5 0 0 1-1 0 3 3 0 0 1-1.2-.1 2.2 2.2 0 0 1-1-1.1c0-.2-.2-.8-.2-1.3-.1-.7 0-1.2.2-1.6.2-.5.5-.9.9-1 .3-.2.7-.4 1.2-.4Zm0 .8c-.6 0-.9.1-1 .4-.4.2-.6.6-.6 1.1h2.8c0-.5-.1-.8-.3-1.1-.2-.3-.5-.4-1-.4Zm0 0"/>  <path id="c" d="M6.7-5.5c.6 0 1 .2 1.4.5.3.3.4.8.4 1.5V0h-.8v-3.5c0-.8-.4-1.2-1.1-1.2-.6 0-1 .1-1.1.4C5.2-4 5-3.5 5-3v3h-.7v-3.5c0-.8-.4-1.2-1.1-1.2-.6 0-1 .1-1.2.5-.2.2-.3.8-.3 1.4V0H.8v-5.4h.8v.8h.2l.6-.7 1-.2c.7 0 1.2.3 1.6 1 .2-.5.4-.7.7-.8.3-.1.7-.2 1-.2Zm0 0"/>  <path id="b" d="M5.5-2.7c0 .9-.2 1.7-.7 2-.4.7-1 .9-1.8.9-.5-.2-.9-.2-1.3-.4-.3-.2-.6-.6-.7-1C.6-1.6.5-2 .5-2.7c0-.9.3-1.6.7-2 .5-.5 1-.8 1.8-.8.5 0 1 .2 1.3.5.4 0 .7.4.9.9.2.2.3.7.3 1.3Zm-4 0c0 .7 0 1.2.3 1.5.3.4.7.6 1.2.6.6 0 1-.2 1.2-.6.3-.3.4-.8.4-1.5s-.1-1.1-.4-1.5c-.2-.3-.6-.5-1.2-.5-.5 0-1 .2-1.2.5-.2.4-.3.9-.3 1.5Zm0 0"/>  <path id="a" d="M6.6 0h-1L1.8-6v6H1v-7.1h1l3.8 5.9v-5.9h.8Zm0 0"/>  <path d="M1 0v-7.1h4V0Zm.4-.5h3.1v-6.1h-3Zm.1 0"/> </defs> <image xlink:href="svg/8/35_15.jpg" width="497" height="279"/> <path d="M3.7 2C3.7 3 3 3.7 2 3.7A1.7 1.7 0 1 1 3.7 2zm0 0" style="fill:#fdfdfa;fill-opacity:1;fill-rule:nonzero;stroke:#3f3f35;stroke-width:.5;stroke-linecap:butt;stroke-linejoin:miter;stroke-miterlimit:4;stroke-opacity:1" transform="translate(57.230532,203.08854)"/> <path d="M47.7 198.7h-1l-4-6v6.1H42v-7.2h1l4 5.9v-5.9h.7zm6.5-2.7c0 1-.2 1.6-.7 2.1-.5.5-1 .7-1.8.7-.5 0-1 0-1.3-.3-.4-.2-.7-.5-.9-1-.2-.3-.3-.8-.3-1.5 0-.8.2-1.5.8-2 .3-.5.9-.7 1.7-.7.5 0 1 0 1.3.3.4.2.6.5.9 1 .1.2.3.7.3 1.4zm-4 0c-.1.7-.1 1.2.2 1.6.3.3.7.4 1.3.4.5.1 1-.1 1.2-.4.1-.4.4-1 .4-1.6 0-.6-.3-1-.4-1.4-.3-.4-.7-.6-1.2-.6-.7 0-1 .2-1.2.6-.3.3-.4.8-.4 1.4zm11.3-2.7c.5 0 1 .1 1.3.4.3.3.5.8.5 1.5v3.5h-1v-3.4c.1-.9-.3-1.3-.9-1.3-.6 0-1 .2-1.2.5-.2.3-.4.7-.4 1.3v3H59v-3.6c0-.8-.4-1.2-1.1-1.2-.6 0-1 .2-1.1.5-.3.3-.3.8-.3 1.4v2.8h-1v-5.3h.9v.6c.3-.2.5-.4.8-.5.2-.2.5-.2.9-.2.7 0 1.2.3 1.5.9.4-.3.5-.6.9-.7.3-.2.5-.2 1-.2zm5.5 0c.4 0 .8 0 1.2.3a2 2 0 0 1 .7.8c.2.4.3.8.3 1.3v.5h-3.7c0 .6.2 1 .5 1.4.3.3.7.5 1.2.5l1-.1.8-.3v.8l-1 .2a5 5 0 0 1-.8.1 3 3 0 0 1-1.3-.3 2.2 2.2 0 0 1-1-.9c-.2-.4-.3-1-.3-1.5 0-.6.1-1.1.4-1.5.1-.4.4-.8.7-1 .4-.2.8-.3 1.3-.3zm0 .7c-.4 0-.8 0-1 .4-.3.3-.4.6-.4 1.1h2.7c0-.4-.1-.8-.3-1-.3-.5-.6-.5-1-.5zm0 0" style="fill:none;stroke:#fff;stroke-width:3;stroke-linecap:butt;stroke-linejoin:round;stroke-miterlimit:10;stroke-opacity:.6" transform="rotate(  340 60.9789 205.087) translate(3.842161,2.3644068)"/> <g style="fill:#212121;fill-opacity:1" transform=" rotate(  340 60.9789 205.087) ">  <use xlink:href="#a" x="44.9" y="201.1"/>  <use xlink:href="#b" x="52.5" y="201.1"/>  <use xlink:href="#c" x="58.6" y="201.1"/>  <use xlink:href="#d" x="67.9" y="201.1"/> </g></svg>
